X:123
T:Quick Step,2voices. JGi.123
T:Roinson Crusoe,aka. JGi.123
M:6/8
L:1/8
Q:3/8=110
S:Joshua Gibbons MS,1823,Tealby,Lincs.
N:Second part not given in published version
R:jig
O:Tealby,Lincolnshire
Z:VMP/R.Greig, 2009
K:F
[V:1]B|f>gf {f}e>de|f3fga|b>abg2c’|b2ag2f|d2d def|
[V:2]c|A>BAc2B|A3cfg|g>fge2e|e2fB2A|B2BB2z|
[V:1]c>AFF2c|B>GB A>FA|A3G2c|f>gf {f}e>de|
[V:2]FCFA,2z|CEG CFA|F3E2c|Acf FBe|Acf fef|
[V:1]f3f>ga|b>abg2c’|b2ag2c|d2d def|
[V:2]g>fgf2e|e2fe2c|B2BB2z|FFFC2z|Bdc BAG|
[V:1]c>AFF2c|dba gfe|ffff2c’|c’>bg e>gb|
[V:2]AAAA2c|Acf Acf|GBc GBc|FAcF2z|B2B Bcd|
[V:1]a>c’a f2c’|c’>ag egb|g>c’a f2c|d>Bf”tr”f3|
[V:2]A2FF2z|ddc BAG|ABA AGF|A3D2A|A2AB2B|
[V:1]c>Aff3|cdc cBA|A3G2c|c2cd2d|e>de c2c|
[V:1]f2fg2g|a>ga f2c|def gab|cde fac|d2dc=Bc|F3F3|]
[V:2]c2BA2z|A2Ac2c|c2BA2F|B2BB2z|c2B2Az|B2BE2E|F3F3|]

